X: 1
T:Quadrille Dance.HSJJ.069
M:6/8
L:1/8
Q:120
S:HSJ Jackson,Wyresdale,Lancs.1823
R:Quadrille
O:England
A:Lancashire
H:1823
Z:Chris Partington.
K:Bb
f/e/|d>ed fdB|G2AB2d|ege dfd|d-c.A Ffe|d>ed fdB|!G2A (Bbg)|fdB FGA|c3B2:
|
|A/-B/|cff f=ed|{d}c2B Acf|!b2ga2f|a-g.=e c-dB|Aff f=ed|caa agf|gbg =ece
|g3-fg_"DC"e|]
